src/assets/img/nucleo-logo.svg

<svg enable-background="new 62 -22 155 77" height="77" viewBox="62 -22 155 77" width="155" xmlns="http://www.w3.org/2000/svg"><g fill="#e3e3e3"><path d="m130.8 13.1c-4.8-4.4-9.4-8.8-13.7-13.1-7-7-14-14.5-20.5-21.9h-31.9c.1 13.7 3.9 26.5 10.4 37.6-.1.2-.3.4-.4.6-12.3 18.7-15.6 30.6-10.1 36.1 1.7 1.7 4.1 2.6 7.1 2.6 11.8 0 35.9-15.2 62.7-38.7-1.2-1-2.4-2.1-3.6-3.2zm-59.1 35c-.6 0-1.7-.1-2.2-.6-1.4-1.4-1.1-8.7 9.8-25.8 4.5 6.1 9.9 11.5 16 16-10.8 6.9-19.1 10.4-23.6 10.4z"/><path d="m203.9 15.5c6.5-11 10.3-23.8 10.4-37.5h-31.8c-6.4 7.3-13.3 14.6-20.6 21.9-3.9 3.9-8 7.8-12.2 11.8-1.7-1.5-3.4-3-5.1-4.6 4.1-3.9 8.3-7.9 12.5-12.1 5.7-5.7 11.1-11.4 16.3-17.1h-67.7c5.5 6.1 11 11.9 16.2 17.1 35.3 35.4 70.4 60 85.4 60 3 0 5.4-.9 7.1-2.6 5.5-5.5 2.3-17.4-10.1-36.2-.1-.2-.3-.5-.4-.7zm5.6 32.1c-.5.5-1.6.6-2.2.6-4.6 0-12.8-3.6-23.5-10.4 6.1-4.5 11.5-9.9 16-16 10.9 17.1 11.2 24.3 9.7 25.8z"/><path d="m108.4 45.5c9.5 4.4 20 6.8 31.1 6.8s21.7-2.4 31.1-6.8c-10.1-6.9-20.8-15.5-31.1-24.5-10.3 9-21 17.6-31.1 24.5z"/></g></svg>

<?xml version="1.0" encoding="utf-8"?>
<!-- Generator: Adobe Illustrator 18.1.1, SVG Export Plug-In . SVG Version: 6.00 Build 0)  -->
<!DOCTYPE svg PUBLIC "-//W3C//DTD SVG 1.1//EN" "http://www.w3.org/Graphics/SVG/1.1/DTD/svg11.dtd">
<svg version="1.1" id="Layer_1" xmlns="http://www.w3.org/2000/svg" xmlns:xlink="http://www.w3.org/1999/xlink" x="0px" y="0px"
	 width="155px" height="77px" viewBox="62 -22 155 77" enable-background="new 62 -22 155 77" xml:space="preserve">
<g>
	<path fill="#E3E3E3" d="M130.8,13.1C126,8.7,121.4,4.3,117.1,0c-7-7-14-14.5-20.5-21.9H64.7c0.1,13.7,3.9,26.5,10.4,37.6
		c-0.1,0.2-0.3,0.4-0.4,0.6C62.4,35,59.1,46.9,64.6,52.4c1.7,1.7,4.1,2.6,7.1,2.6c11.8,0,35.9-15.2,62.7-38.7
		C133.2,15.3,132,14.2,130.8,13.1z M71.7,48.1c-0.6,0-1.7-0.1-2.2-0.6c-1.4-1.4-1.1-8.7,9.8-25.8c4.5,6.1,9.9,11.5,16,16
		C84.5,44.6,76.2,48.1,71.7,48.1z"/>
	<path fill="#E3E3E3" d="M203.9,15.5c6.5-11,10.3-23.8,10.4-37.5h-31.8c-6.4,7.3-13.3,14.6-20.6,21.9c-3.9,3.9-8,7.8-12.2,11.8
		c-1.7-1.5-3.4-3-5.1-4.6c4.1-3.9,8.3-7.9,12.5-12.1c5.7-5.7,11.1-11.4,16.3-17.1h-67.7c5.5,6.1,11,11.9,16.2,17.1
		c35.3,35.4,70.4,60,85.4,60c3,0,5.4-0.9,7.1-2.6c5.5-5.5,2.3-17.4-10.1-36.2C204.2,16,204,15.7,203.9,15.5z M209.5,47.6
		c-0.5,0.5-1.6,0.6-2.2,0.6c-4.6,0-12.8-3.6-23.5-10.4c6.1-4.5,11.5-9.9,16-16C210.7,38.9,211,46.1,209.5,47.6z"/>
	<path fill="#E3E3E3" d="M108.4,45.5c9.5,4.4,20,6.8,31.1,6.8s21.7-2.4,31.1-6.8C160.5,38.6,149.8,30,139.5,21
		C129.2,30,118.5,38.6,108.4,45.5z"/>
</g>
</svg>
